X:82
T:Opera Reel
C:Traditional
M:4/4
L:1/8
Q:1/8=460
K:D
A,B,|D2DD FDFA|DA,DF EDB,G,|A,B,DE FEFA|BdAF E2FE|
D2DD FDFA|DA,DF EDB,G,|A,B,DE FEFA|BdAF E2Bc|
d2cd dAFA|dcdf egfe|dfed BAFA|BdAF E2Bc|
d2dc dAFA|dcdf egfe|dfed BAFA|BdAF E2fg|
a3f g2ge|faec dcBA|adfa gfeg|faec defg|
agfg gfeg|faec dcBA|a2fa gfeg|faec d2Bc|
defd efge|faec dcBA|defd efge|faec d2Bc|
defd efge|faec dcBA|defd efge|faec d4|
